svgs/duotone/medal.svg

<svg xmlns="http://www.w3.org/2000/svg" viewBox="0 0 512 512"><!-- Font Awesome Pro 6.0.0-alpha2 by @fontawesome - https://fontawesome.com License - https://fontawesome.com/license (Commercial License) --><defs><style>.fa-secondary{opacity:.4}</style></defs><path d="M136.277 0H16.027C3.081 0 -4.505 14.578 2.923 25.18L133.253 209.969C161.991 181.977 200.253 163.836 242.755 160.668L149.997 7.77C147.107 2.949 141.898 0 136.277 0ZM495.972 0H375.722C370.101 0 364.892 2.949 362.001 7.77L269.243 160.668C311.745 163.836 350.007 181.977 378.745 209.969L509.075 25.18C516.503 14.578 508.917 0 495.972 0Z" class="fa-secondary"/><path d="M256 160C158.75 160 80 238.75 80 336S158.75 512 256 512S432 433.25 432 336S353.25 160 256 160ZM348.49 317.25L310.615 354.25L319.49 406.5C321.115 415.75 311.24 423 302.865 418.5L255.99 393.875L209.115 418.5C200.74 423 190.865 415.75 192.49 406.5L201.365 354.25L163.49 317.25C156.615 310.625 160.49 299 169.865 297.625L222.24 290L245.74 242.5C247.74 238.25 251.865 236.125 255.99 236.125S264.24 238.25 266.24 242.5L289.74 290L342.115 297.625C351.615 299 355.365 310.625 348.49 317.25Z" class="fa-primary"/></svg>

<svg xmlns="http://www.w3.org/2000/svg" viewBox="0 0 512 512"><!--! Font Awesome Pro 6.0.0-alpha3 by @fontawesome - https://fontawesome.com License - https://fontawesome.com/license (Commercial License) --><defs><style>.fa-secondary{opacity:.4}</style></defs><path class="fa-primary" d="M256 160c-97.25 0-176 78.75-176 176S158.8 512 256 512s176-78.75 176-176S353.3 160 256 160zM348.5 317.3l-37.88 37l8.875 52.25c1.625 9.25-8.25 16.5-16.63 12l-46.88-24.62L209.1 418.5c-8.375 4.5-18.25-2.75-16.63-12l8.875-52.25l-37.88-37C156.6 310.6 160.5 299 169.9 297.6l52.38-7.625L245.7 242.5c2-4.25 6.125-6.375 10.25-6.375S264.2 238.3 266.2 242.5l23.5 47.5l52.38 7.625C351.6 299 355.4 310.6 348.5 317.3z"/><path class="fa-secondary" d="M136.3 0H16.03c-12.95 0-20.53 14.58-13.1 25.18l130.3 184.8c28.74-27.99 67-46.13 109.5-49.3L149.1 7.77C147.1 2.949 141.9 0 136.3 0zM495.1 0H375.7c-5.621 0-10.83 2.949-13.72 7.77L269.2 160.7c42.5 3.168 80.76 21.31 109.5 49.3l130.3-184.8C516.5 14.58 508.9 0 495.1 0z"/></svg>
